modules/hawcons-stroke/icons/icon-10-two-fingers-swipe-up.svg

<?xml version="1.0" encoding="UTF-8" standalone="no"?>
<svg width="32px" height="32px" viewBox="0 0 32 32" version="1.1" xmlns="http://www.w3.org/2000/svg" xmlns:xlink="http://www.w3.org/1999/xlink" xmlns:sketch="http://www.bohemiancoding.com/sketch/ns">
    <!-- Generator: Sketch 3.0.3 (7891) - http://www.bohemiancoding.com/sketch -->
    <title>icon 10 two fingers swipe up</title>
    <desc>Created with Sketch.</desc>
    <defs></defs>
    <g id="Page-1" stroke="none" stroke-width="1" fill="none" fill-rule="evenodd" sketch:type="MSPage">
        <g id="icon-10-two-fingers-swipe-up" sketch:type="MSArtboardGroup" fill="#929292">
            <path d="M19.1244203,28.9875042 C19.2880344,28.9957792 19.4546685,28.9999793 19.6244203,29 C23.7665562,29 27.1244203,25.6421358 27.1244203,21.5 L27.1244203,17.7491622 L27.1244203,15.5016756 C27.1244203,14.6723231 26.4586231,14 25.6244203,14 C24.7959932,14 24.1244203,14.6711894 24.1244203,15.5016756 L24.1244203,16 L23.1244203,16 L23.1244203,13.5064385 C23.1244203,12.6744555 22.4586231,12 21.6244203,12 C20.7959932,12 20.1244203,12.6715406 20.1244203,13.5064385 L20.1244203,15 L19.1244203,15 L19.1244203,4.49089813 C19.1244203,3.66749783 18.4586231,3 17.6244203,3 C16.7959932,3 16.1244203,3.67622006 16.1244203,4.49089813 L16.1244203,16 L15.1244203,16 L15.1244203,5.50524116 C15.1244203,4.67391942 14.4586231,4 13.6244203,4 C12.7959932,4 12.1244203,4.66712976 12.1244203,5.50524116 L12.1244203,16.7983451 C10.0660207,14.5979243 7.35605012,12.1791206 6.24545305,13.2957153 C5.15828327,14.3887562 7.95978233,17.4007216 11.8717958,23.9830936 C13.3862579,26.5313351 15.245973,28.4039814 18.1244203,28.8810592 L18.1244203,19.950001 L14.8744203,23.200001 L14.1244203,22.450001 L18.6244203,17.950001 L23.1244203,22.450001 L22.3744203,23.200001 L19.1244203,19.950001 L19.1244203,28.9875042 L19.1244203,28.9875042 Z M28.1244203,21.5 C28.1244203,26.1944206 24.3188409,30 19.6244203,30.0000003 C16.5115051,30.0000003 13.2262274,28.5474856 10.9652407,24.4282229 C7.70175208,18.4825159 3.52827319,14.5832077 5.51553361,12.5959473 C6.9371827,11.1742982 9.16926196,12.5381668 11.1244203,14.3667868 L11.1244203,14.3667868 L11.1244203,5.50840855 C11.1244203,4.11541748 12.2437085,3 13.6244203,3 C14.2626699,3 14.8417708,3.23666852 15.281526,3.62673579 C15.6359965,2.67519131 16.5512398,2 17.6244203,2 C19.0147583,2 20.1244203,3.12083549 20.1244203,4.50345613 L20.1244203,11.5021366 C20.5422506,11.1873681 21.0616174,11 21.6244203,11 C23.0147583,11 24.1244203,12.1182256 24.1244203,13.4976267 L24.1244203,13.5110883 C24.5422506,13.1985158 25.0616174,13.014191 25.6244203,13.014191 C27.0147583,13.014191 28.1244203,14.1335355 28.1244203,15.5143168 L28.1244203,21.5 L28.1244203,21.5 Z" id="two-fingers-swipe-up" sketch:type="MSShapeGroup"></path>
        </g>
    </g>
</svg>

<svg width="32" height="32" viewBox="0 0 32 32" xmlns="http://www.w3.org/2000/svg"><path d="M19.124 28.988c.164.008.33.012.5.012a7.5 7.5 0 0 0 7.5-7.5v-5.998a1.5 1.5 0 0 0-3 0V16h-1v-2.494a1.5 1.5 0 1 0-3 0V15h-1V4.49c0-.823-.665-1.49-1.5-1.49-.828 0-1.5.676-1.5 1.49V16h-1V5.505a1.499 1.499 0 1 0-3 0v11.293c-2.058-2.2-4.768-4.619-5.879-3.502-1.087 1.093 1.715 4.105 5.627 10.687 1.514 2.548 3.374 4.421 6.252 4.898V19.95l-3.25 3.25-.75-.75 4.5-4.5 4.5 4.5-.75.75-3.25-3.25v9.038zm9-7.488a8.5 8.5 0 0 1-8.5 8.5c-3.112 0-6.398-1.453-8.659-5.572-3.263-5.945-7.437-9.845-5.45-11.832 1.422-1.422 3.654-.058 5.61 1.77V5.509a2.5 2.5 0 0 1 4.157-1.881A2.499 2.499 0 0 1 17.624 2c1.39 0 2.5 1.12 2.5 2.503v7a2.485 2.485 0 0 1 1.5-.503c1.39 0 2.5 1.118 2.5 2.498v.013a2.495 2.495 0 0 1 1.5-.497c1.39 0 2.5 1.12 2.5 2.5V21.5z" fill="#929292" fill-rule="evenodd"/></svg>
